X:1
T:[ID 2-44b]
T:[ID 2-44b]
T:Bezeichnung standardisiert: Menuett Menuet 11.
T:Urheber unbekannt Erstbeleg: 1767 (Datum in der schriftlichen Quelle) Datum in der hier transkribierten schriftlichen Quelle: 1775
C:Urheber unbekannt
C:Erstbeleg: 1767 (Datum in der schriftlichen Quelle)
C:Datum in der hier transkribierten schriftlichen Quelle: 1775
L:1/8
M:3/4
K:D
V:1 treble 
V:1
 F2 F2 F2 | f2 f2 f2 | edecdE | F4 (3def | edecdE | F4 (3gab | a2 dcdB | c6 :: f2 defd | e2 cdec | %10
 dfedcB | A2 DE C2 | f2 f2 f2 | f4 a2 | g2 gfge | f4 (3fga | g2 gfge | f4 (3cde | d2 GFGE | F6 :| %20

